flaticon/dialogue/chat-1.svg

<svg xmlns="http://www.w3.org/2000/svg" width="32" height="32" viewBox="0 0 24 24">
    <path d="M 21.601562 1 L 2.398438 1 C 1.097656 1 0 2.097656 0 3.398438 L 0 16.601562 C 0 17.902344 1.097656 19 2.398438 19 L 8.222656 19 L 11.703125 22.867188 C 11.777344 22.953125 11.886719 23 12 23 C 12.113281 23 12.222656 22.953125 12.296875 22.867188 L 15.777344 19 L 21.601562 19 C 22.902344 19 24 17.902344 24 16.601562 L 24 3.398438 C 24 2.097656 22.902344 1 21.601562 1 Z M 23.199219 16.601562 C 23.199219 17.46875 22.46875 18.199219 21.601562 18.199219 L 16.585938 18.199219 L 17.511719 17.285156 C 17.667969 17.128906 17.667969 16.875 17.511719 16.71875 C 17.355469 16.5625 17.105469 16.558594 16.945312 16.714844 L 15.34375 18.304688 C 15.328125 18.3125 15.3125 18.320312 15.300781 18.332031 L 12 22.003906 L 8.695312 18.332031 C 8.695312 18.328125 8.691406 18.328125 8.6875 18.324219 C 8.6875 18.324219 8.683594 18.320312 8.679688 18.316406 L 7.066406 16.714844 C 6.90625 16.558594 6.65625 16.5625 6.5 16.71875 C 6.34375 16.875 6.34375 17.128906 6.5 17.285156 L 7.425781 18.199219 L 2.398438 18.199219 C 1.53125 18.199219 0.800781 17.46875 0.800781 16.601562 L 0.800781 3.398438 C 0.800781 2.53125 1.53125 1.800781 2.398438 1.800781 L 21.601562 1.800781 C 22.46875 1.800781 23.199219 2.53125 23.199219 3.398438 Z M 23.199219 16.601562"/>
</svg>

<svg xmlns="http://www.w3.org/2000/svg" width="32" height="32" viewBox="0 0 24 24">
    <path d="M21.602 1H2.398C1.098 1 0 2.098 0 3.398v13.204C0 17.902 1.098 19 2.398 19h5.825l3.48 3.867A.391.391 0 0 0 12 23a.391.391 0 0 0 .297-.133L15.777 19h5.825c1.3 0 2.398-1.098 2.398-2.398V3.398C24 2.098 22.902 1 21.602 1zm1.597 15.602c0 .867-.73 1.597-1.597 1.597h-5.016l.926-.914a.4.4 0 0 0 0-.566.4.4 0 0 0-.567-.004l-1.601 1.59c-.016.008-.031.015-.043.027L12 22.004l-3.305-3.672c0-.004-.004-.004-.008-.008l-.007-.008-1.614-1.601a.4.4 0 0 0-.566.004.4.4 0 0 0 0 .566l.926.914H2.398c-.867 0-1.597-.73-1.597-1.597V3.398c0-.867.73-1.597 1.597-1.597h19.204c.867 0 1.597.73 1.597 1.597zm0 0"/>
</svg>
